X: 188
T: the Slipper
%R: march, reel
M: 2/4
L: 1/8
Z: 2014 John Chambers <jc:trillian.mit.edu>
B: Chas & Sam Thompson "Twenty Four Country Dances for the Year 1772", London 1772, p.94
F: http://folkopedia.efdss.org/images/8/89/Thompson_24_1772.PDF
K: G
|:\
(g>d)B2 | (g>d)B2 | ABcA | BGG2 |\
(g>d)B2 | (g>d)B2 | AD cB | {B2}A4 :|
|:\
A>F D2 | A>F D2 | cBcA | BGD2 |\
dGeG | FAc2 | Bd FA | G4 :|
% - - - - - - - - - - - - - - - - - - - - - - - - -
%%begintext align
%% The first Cu: cast down two Cu: and foot it .|. cast
%% up again and foot it :|. cross over one Cu: lead thro
%% the 3d Cu: cast up right Hands and left .|: :|:
%%endtext
% - - - - - - - - - - - - - - - - - - - - - - - - -

%%sep 1 1 500
%%sep 1 1 500
